X: 3
T: Chrut-und-Chabis-Walzer CGF  Anm
M:3/4
L:1/4
K:C %%MIDI gchordon
G/F/ | "C"E2G | cde | "Dm"("_f"f3 | "G7""_h"B2)z | "_f"f>"_h"BB | f>BB | "C"(e3 | c2) G/F/ | E3 | cd"_ ="e | 
"Dm"("_d"d3 | "_a"A2) ("_d"d/c/) | "G7""_h"Bz"_a"a | gz"_ h ="B | "C"(c3 | c) z d/c/ || [K:G] "G"B G/G/ G | e d/d/"_ ="d | "D7""_c"c "_a"A/A/A | "G"d e/"_f#""_ **"f/ g | 
BG/G/G | ed/d/d | "D7"("_f#"f/"_e"e/) (d/"_c"c/) (B/"_a"A/) | "G"Gzz/G/ || [K:C] "C"e2e | (ede) | "G7"f2d | B2G | "C"c2c | 
cBc | "G7"(d3 | d)zd | d2d | def | "C"g3 | "Dm""_a"A2"_d"d | "C/G"c2c | "G7"dcd | "C"(e3 | 
e) ze | "G7"edd | def | "C"(g2c') | "F"afd | "C/G"c (d/c/ B/c/) | "G7"e2d | "C"(c3 | c)z g/f/ 
|: "C"eGc | eGe | "G7"dGB | dz (a/g/) | fGB |1 f (Gf) | "C"e (Gc) | ez g/f/ :|2 
dGg | "C"(c3 | c)z c/_B/ || [K:F] "F"(A3 | A) (d/c/) (d/c/) | (A3 | A) d/c/ d/c/ | f>AA | d>AA | 
"C7"(c3 | "_b"B2)z | "_g"G>A "_b"B/c/ | "_d"d>c"_ b ="B | "F"(A2f) | c>"_b""_ **"BA | "Gm""_g"G2"_d"d | "C7"c2E | "F"(F3F)zz |]

